!!!SOCIAL_FUNCTION:	bird dance songs
!!!PDT:	1956
!!!OTL: No_110_Hinata_Dance_Song_(f).krn
!!!LANG: Non-Tone
!!!LING_GROUP: Muskogean
!!!REG: Florida
**kern
*staff1
=1-
*clefF4
*k[b-]
*M3/8
4r
8c\
=2!|:
8c\L
8A\
8c\J
=3
*M5/8
8c\L
8A\
8c\
8c\
8B-\J
=4
*M3/8
(8A\L
8G\
8F\J)
=5
4.F\
=6
*M5/8
4.F\
8F\L
8F\J
=7
*M3/8
8F\L
8D\
8F\J
=8
*M5/8
8F\L
8D\
8F\
8F\
8D\J
=9
*M2/4
4C/
4C/
=10
*M3/8
8C/L
8C/
8F/J
=11
*M5/8
8F\L
8F\
8G\
8G\
8F\J
=12
*M3/4
4F\
4F\
8.F\L
16F\Jk
=13
*M3/8
8F\L
8D\
8F\J
=14
*M5/8
8F\L
8D\
8F\
8F\
8D\J
=15
*M3/4
4C/
4C/
16C/
16r
8c\
==:|!
*-
